X:3886
T:Madam Frederick
O:england
M:4/4
L:1/8
C:Wm. Marshall
R:Strathspey
K:A
c|"A"A,>B,C>D E>F E<C|"A"A,>C E<C E<AA<c|"A"A,>B,C>D E>F E<C|"Bm"B,>B d/
c/B/A/ "E"GB,C>D E>F E<C|"A"A,>C E<C E<AA<c|"A"e>c A<E "D"F<
df>e|"D"dcBA "E"GA e>Ac>A|"A"E>Ac>A "D"f/e/d/c/ "E"B>c|"
A"A<A c>A e>Ac>A|"D"F>A F/E/D/C/ "E"B,c|"A"A<A c>A e>Ac>A|"A"E>Ac>A
"D"f/e/d/c/ "E"B>c|"A"A>c A<E "D"F>A F<D|"E"E>DC>B, "A"A,AA||
